blockchains/ethereum/assets/0xdeFA4e8a7bcBA345F687a2f1456F5Edd9CE97202/logo.svg

<svg fill="none" height="250" viewBox="0 0 250 250" width="250" xmlns="http://www.w3.org/2000/svg" xmlns:xlink="http://www.w3.org/1999/xlink"><clipPath id="a"><path d="m0 0h250v250h-250z"/></clipPath><g clip-path="url(#a)"><circle cx="125" cy="125" fill="#31cb9e" r="125"/><g fill="#fff"><path d="m119.5 124.979 69.903 40.041c.562.338 1.204.52 1.859.527.655.008 1.301-.159 1.87-.484.57-.324 1.043-.795 1.37-1.363.327-.567.498-1.212.494-1.868v-73.7616c.008-.6565-.161-1.3032-.488-1.8724s-.802-1.0399-1.373-1.3628c-.572-.323-1.22-.4864-1.876-.4731-.657.0133-1.298.2028-1.856.5487z"/><path d="m187.922 67.1838-47.786-35.1474c-.495-.3799-1.076-.6322-1.691-.7347s-1.246-.0521-1.838.1468c-.591.1989-1.124.5402-1.552.9938s-.738 1.0056-.903 1.6073l-17.448 78.2914 70.798-39.1456c.539-.2771.997-.6884 1.33-1.1943.334-.5058.531-1.089.573-1.6934.042-.6043-.072-1.2093-.332-1.7565s-.656-1.0182-1.151-1.3674z"/><path d="m140.08 217.895 47.842-35.148c.501-.352.904-.828 1.169-1.381s.384-1.164.344-1.776c-.039-.612-.235-1.204-.568-1.718-.334-.515-.794-.935-1.337-1.22l-70.826-39.146 17.448 78.292c.145.608.438 1.171.854 1.637.416.467.942.823 1.53 1.037.587.213 1.219.277 1.837.186.619-.091 1.205-.334 1.707-.707"/><path d="m101.327 123.526 18.175-85.0028c.139-.7044.065-1.4342-.214-2.096-.278-.6618-.748-1.2254-1.348-1.6188-.601-.3934-1.305-.5986-2.023-.5894-.718.0093-1.417.2325-2.007.6412l-46.5555 35.7066c-1.1789.9044-2.1329 2.0689-2.7877 3.4027-.6547 1.3338-.9926 2.8008-.9871 4.2867v90.5948c-.0228 1.504.3066 2.994.962 4.348.6555 1.355 1.6187 2.537 2.8128 3.453l46.3315 35.595c.591.409 1.289.632 2.007.641s1.423-.196 2.023-.589c.601-.394 1.07-.957 1.349-1.619.278-.662.352-1.392.214-2.096z"/></g></g></svg>

<svg width="250" height="250" viewBox="0 0 250 250" fill="none" xmlns="http://www.w3.org/2000/svg">
<g clip-path="url(#clip0_37_33809)">
<circle cx="125" cy="125" r="125" fill="#31CB9E"/>
<path d="M119.5 124.979L189.403 165.02C189.965 165.358 190.607 165.54 191.262 165.547C191.917 165.555 192.563 165.388 193.132 165.063C193.702 164.739 194.175 164.268 194.502 163.7C194.829 163.133 195 162.488 194.996 161.832V88.0704C195.004 87.4139 194.835 86.7672 194.508 86.198C194.181 85.6288 193.706 85.1581 193.135 84.8352C192.563 84.5122 191.915 84.3488 191.259 84.3621C190.602 84.3754 189.961 84.5649 189.403 84.9108L119.5 124.979Z" fill="white"/>
<path d="M187.922 67.1838L140.136 32.0364C139.641 31.6565 139.06 31.4042 138.445 31.3017C137.83 31.1992 137.199 31.2496 136.607 31.4485C136.016 31.6474 135.483 31.9887 135.055 32.4423C134.627 32.8959 134.317 33.4479 134.152 34.0496L116.704 112.341L187.502 73.1954C188.041 72.9183 188.499 72.507 188.832 72.0011C189.166 71.4953 189.363 70.9121 189.405 70.3077C189.447 69.7034 189.333 69.0984 189.073 68.5512C188.813 68.004 188.417 67.533 187.922 67.1838Z" fill="white"/>
<path d="M140.08 217.895L187.922 182.747C188.423 182.395 188.826 181.919 189.091 181.366C189.356 180.813 189.475 180.202 189.435 179.59C189.396 178.978 189.2 178.386 188.867 177.872C188.533 177.357 188.073 176.937 187.53 176.652L116.704 137.506L134.152 215.798C134.297 216.406 134.59 216.969 135.006 217.435C135.422 217.902 135.948 218.258 136.536 218.472C137.123 218.685 137.755 218.749 138.373 218.658C138.992 218.567 139.578 218.324 140.08 217.951" fill="white"/>
<path d="M101.327 123.526L119.502 38.5232C119.641 37.8188 119.567 37.089 119.288 36.4272C119.01 35.7654 118.54 35.2018 117.94 34.8084C117.339 34.415 116.635 34.2098 115.917 34.219C115.199 34.2283 114.5 34.4515 113.91 34.8602L67.3545 70.5668C66.1756 71.4712 65.2216 72.6357 64.5668 73.9695C63.9121 75.3033 63.5742 76.7703 63.5797 78.2562V168.851C63.5569 170.355 63.8863 171.845 64.5417 173.199C65.1972 174.554 66.1604 175.736 67.3545 176.652L113.686 212.247C114.277 212.656 114.975 212.879 115.693 212.888C116.411 212.897 117.116 212.692 117.716 212.299C118.317 211.905 118.786 211.342 119.065 210.68C119.343 210.018 119.417 209.288 119.279 208.584L101.327 123.526Z" fill="white"/>
</g>
<defs>
<clipPath id="clip0_37_33809">
<rect width="250" height="250" fill="white"/>
</clipPath>
</defs>
</svg>
